fs/emoji_sparkle_20_filled.svg

<svg viewBox="0 0 20 20" fill="none" xmlns="http://www.w3.org/2000/svg" height="1em" width="1em">
  <path d="M14.8777 0.282251L15.226 1.35305C15.3343 1.67859 15.5171 1.97441 15.7599 2.21699C16.0026 2.45957 16.2987 2.64223 16.6245 2.75044L17.6961 3.09845L17.7175 3.10381C17.8001 3.13292 17.8716 3.18692 17.9222 3.25836C17.9728 3.3298 18 3.41516 18 3.50268C18 3.5902 17.9728 3.67556 17.9222 3.747C17.8716 3.81844 17.8001 3.87244 17.7175 3.90155L16.6459 4.24956C16.3877 4.33534 16.1481 4.4679 15.939 4.64C15.9397 4.64085 15.9405 4.64171 15.9413 4.64257C15.8866 4.68758 15.834 4.7353 15.7837 4.78561C15.5406 5.02874 15.3578 5.32548 15.2501 5.652L15.2379 5.689C15.2351 5.69343 15.2322 5.69788 15.2294 5.70234L15.0035 6.39708C15.0033 6.39958 15.0031 6.40207 15.003 6.40457L14.9001 6.718C14.887 6.75423 14.869 6.78837 14.8468 6.81954C14.819 6.85919 14.7845 6.89402 14.7445 6.92231C14.673 6.97286 14.5876 7.00001 14.5 7.00001C14.4124 7.00001 14.327 6.97286 14.2555 6.92231C14.2484 6.91732 14.2416 6.91213 14.2349 6.90675C14.1736 6.85755 14.1271 6.79215 14.1008 6.71775L13.7525 5.64696C13.7338 5.59014 13.7128 5.53422 13.6897 5.47932C13.5796 5.21872 13.4202 4.98116 13.2197 4.77999C13.1815 4.74173 13.1421 4.70496 13.1014 4.66973C12.883 4.48064 12.6292 4.33588 12.3541 4.24421L11.7065 4.0339L11.2831 3.9C11.2213 3.87845 11.1653 3.84281 11.1196 3.7959C11.074 3.74898 11.0398 3.69209 11.0199 3.62971C11.0066 3.58779 10.9999 3.54417 11 3.50043C11 3.49939 11 3.49836 11 3.49733C11 3.40981 11.0272 3.32445 11.0778 3.25301C11.1284 3.18157 11.1999 3.12757 11.2825 3.09845L12.3541 2.75044C12.6759 2.63941 12.9677 2.45549 13.2066 2.21307C13.4454 1.97065 13.625 1.67631 13.7311 1.35305L14.0794 0.282251C14.1085 0.19972 14.1626 0.128252 14.2341 0.0776997C14.3056 0.0271473 14.391 0 14.4786 0C14.5662 0 14.6516 0.0271473 14.7231 0.0776997C14.7946 0.128252 14.8486 0.19972 14.8777 0.282251ZM19.7829 8.21319L19.0175 7.96461C18.7848 7.88731 18.5733 7.75684 18.3999 7.58357C18.2265 7.4103 18.0959 7.199 18.0186 6.96647L17.7698 6.20161C17.749 6.14266 17.7104 6.09161 17.6593 6.05551C17.6083 6.0194 17.5473 6.00001 17.4847 6.00001C17.4221 6.00001 17.3611 6.0194 17.31 6.05551C17.259 6.09161 17.2204 6.14266 17.1996 6.20161L16.9508 6.96647C16.875 7.19737 16.7467 7.40762 16.5761 7.58077C16.4269 7.73215 16.2489 7.85159 16.0529 7.93223C16.0527 7.93216 16.0531 7.93231 16.0529 7.93223C16.0242 7.94407 15.9945 7.95485 15.9651 7.965L15.2001 8.213C15.141 8.23386 15.09 8.27267 15.0541 8.324C15.0177 8.37491 14.9981 8.43592 14.9981 8.4985C14.9981 8.56108 15.0177 8.6221 15.0541 8.673C15.0901 8.72397 15.1412 8.76242 15.2001 8.783L15.9651 9.031C15.9847 9.03747 16.0042 9.04432 16.0235 9.05154C16.2344 9.13081 16.4261 9.25443 16.5855 9.41428C16.7335 9.56277 16.8502 9.73903 16.9289 9.93252C16.9421 9.96488 16.9541 9.99772 16.9651 10.031L17.2141 10.796C17.2141 10.7962 17.214 10.7958 17.2141 10.796L17.2149 10.7984C17.2357 10.8574 17.2743 10.9084 17.3254 10.9445C17.3764 10.9806 17.4374 11 17.5 11C17.5626 11 17.6236 10.9806 17.6746 10.9445C17.7257 10.9084 17.7643 10.8574 17.7851 10.7984L18.0339 10.0335C18.1113 9.80101 18.2418 9.58972 18.4152 9.41645C18.5886 9.24317 18.8001 9.11271 19.0328 9.03541L19.7982 8.78683C19.8572 8.76603 19.9083 8.72746 19.9445 8.67643C19.9806 8.62541 20 8.56443 20 8.50192C20 8.43941 19.9806 8.37844 19.9445 8.32741C19.9083 8.27638 19.8572 8.23781 19.7982 8.21701L19.7829 8.21319ZM10 18C13.7359 18 16.8737 15.4392 17.7538 11.9771C17.6058 12.0061 17.4534 12.0092 17.3036 11.9858C17.1045 11.9547 16.9153 11.8777 16.7511 11.761C16.5247 11.6001 16.3552 11.3714 16.2671 11.108L16.0191 10.346C15.9905 10.2611 15.943 10.1838 15.8801 10.12C15.8185 10.0583 15.7436 10.0114 15.6611 9.983L14.8721 9.726C14.7006 9.66594 14.5437 9.57061 14.4114 9.44616C14.279 9.32171 14.1742 9.17091 14.1038 9.00348C14.0333 8.83606 13.9987 8.65571 14.0022 8.47409C14.0057 8.29247 14.0472 8.11359 14.1241 7.949C13.966 7.90569 13.8167 7.83495 13.6831 7.74L13.6371 7.707L13.6121 7.687C13.3994 7.51512 13.2402 7.28617 13.1531 7.027L12.8061 5.96C12.7951 5.928 12.7841 5.897 12.7721 5.869C12.7119 5.72628 12.6246 5.59656 12.5151 5.487C12.4941 5.465 12.4721 5.445 12.4501 5.426C12.333 5.32383 12.1971 5.24537 12.0501 5.195L10.9501 4.839C10.7424 4.76595 10.5546 4.64568 10.4013 4.48767C10.248 4.32966 10.1335 4.13823 10.0668 3.92844C10.0001 3.71866 9.98306 3.49626 10.0169 3.27875C10.0508 3.06124 10.1347 2.85457 10.2621 2.675C10.4377 2.42828 10.687 2.24346 10.9741 2.147L11.1668 2.08448C10.7859 2.02882 10.3963 2 10 2C5.58172 2 2 5.58172 2 10C2 14.4183 5.58172 18 10 18ZM6.44757 12.4251C6.64344 12.2304 6.96002 12.2314 7.15467 12.4273C8.66416 13.9463 11.0877 14.0045 12.6671 12.5961L12.8453 12.4273L12.9144 12.3692C13.1088 12.2336 13.3783 12.252 13.5524 12.4251C13.7265 12.5981 13.7467 12.8674 13.6123 13.0627L13.5547 13.1322L13.3505 13.3265C11.3779 15.103 8.33704 15.0359 6.44533 13.1322C6.25069 12.9363 6.25169 12.6197 6.44757 12.4251ZM11.5 8.5C11.5 7.94772 11.9477 7.5 12.5 7.5C13.0523 7.5 13.5 7.94772 13.5 8.5C13.5 9.05228 13.0523 9.5 12.5 9.5C11.9477 9.5 11.5 9.05228 11.5 8.5ZM6.5 8.5C6.5 7.94772 6.94772 7.5 7.5 7.5C8.05228 7.5 8.5 7.94772 8.5 8.5C8.5 9.05228 8.05228 9.5 7.5 9.5C6.94772 9.5 6.5 9.05228 6.5 8.5Z" fill="#212121"/>
</svg>

<svg viewBox="0 0 20 20" fill="none" xmlns="http://www.w3.org/2000/svg" height="1em" width="1em">
  <path d="m14.878.282.348 1.071a2.205 2.205 0 0 0 1.399 1.397l1.071.348.021.006a.423.423 0 0 1 0 .798l-1.071.348a2.208 2.208 0 0 0-.707.39l.002.003a2.195 2.195 0 0 0-.69 1.009l-.013.037-.009.013-.225.695-.001.008-.103.313a.423.423 0 0 1-.155.204.423.423 0 0 1-.644-.204l-.349-1.071a2.23 2.23 0 0 0-.532-.867 2.224 2.224 0 0 0-.866-.536l-.647-.21-.424-.134A.423.423 0 0 1 11 3.5v-.003a.423.423 0 0 1 .283-.399l1.071-.348a2.208 2.208 0 0 0 1.377-1.397l.348-1.07a.423.423 0 0 1 .799 0Zm4.905 7.931-.766-.248a1.577 1.577 0 0 1-.998-.999l-.25-.764a.302.302 0 0 0-.57 0l-.248.764a1.576 1.576 0 0 1-.986.999l-.765.248a.3.3 0 0 0-.146.111.3.3 0 0 0 .146.459l.765.248a1.583 1.583 0 0 1 .62.383 1.575 1.575 0 0 1 .38.617l.25.765s-.001 0 0 0v.002a.302.302 0 0 0 .57 0l.249-.764a1.576 1.576 0 0 1 .999-.999l.765-.248a.303.303 0 0 0 0-.57l-.015-.004ZM10 18a8.003 8.003 0 0 0 7.754-6.023 1.299 1.299 0 0 1-1.003-.216 1.312 1.312 0 0 1-.484-.653l-.248-.762a.573.573 0 0 0-.358-.363l-.789-.257a1.299 1.299 0 0 1-.748-1.777 1.4 1.4 0 0 1-.44-.209l-.047-.033-.025-.02a1.437 1.437 0 0 1-.459-.66l-.347-1.067a1.2 1.2 0 0 0-.356-.534 1.2 1.2 0 0 0-.4-.231l-1.1-.356a1.422 1.422 0 0 1 .024-2.692l.193-.063A8 8 0 1 0 10 18Zm-3.552-5.575a.5.5 0 0 1 .707.002 4.011 4.011 0 0 0 5.512.17l.178-.17.07-.058a.5.5 0 0 1 .697.694l-.057.07-.204.194a5.011 5.011 0 0 1-6.906-.195.5.5 0 0 1 .003-.707ZM11.5 8.5a1 1 0 1 1 2 0 1 1 0 0 1-2 0Zm-5 0a1 1 0 1 1 2 0 1 1 0 0 1-2 0Z" fill="#212121"/>
</svg>
